flaticon/religion/buddhism.svg

<svg xmlns="http://www.w3.org/2000/svg" width="32" height="32" viewBox="0 0 24 24">
    <path d="M 23.960938 11.027344 C 23.503906 5.21875 18.78125 0.496094 12.972656 0.0390625 C 9.445312 -0.242188 6 1.027344 3.515625 3.515625 C 1.027344 6 -0.238281 9.449219 0.0390625 12.972656 C 0.496094 18.78125 5.21875 23.503906 11.027344 23.960938 C 11.347656 23.988281 11.664062 24 11.984375 24 C 15.167969 24 18.222656 22.746094 20.484375 20.484375 C 22.972656 18 24.238281 14.550781 23.960938 11.027344 Z M 19.921875 19.917969 C 17.597656 22.242188 14.382812 23.425781 11.089844 23.164062 C 5.671875 22.738281 1.261719 18.328125 0.835938 12.910156 C 0.578125 9.621094 1.757812 6.402344 4.078125 4.082031 C 6.191406 1.96875 9.042969 0.800781 12.015625 0.800781 C 12.3125 0.800781 12.609375 0.8125 12.910156 0.835938 C 18.328125 1.261719 22.738281 5.671875 23.164062 11.089844 C 23.425781 14.378906 22.242188 17.597656 19.921875 19.917969 Z M 19.921875 19.917969"/>
    <path d="M 20.566406 10.398438 L 19.871094 10.398438 C 19.667969 9.238281 19.214844 8.132812 18.546875 7.160156 L 18.929688 6.769531 C 19.195312 6.503906 19.339844 6.152344 19.339844 5.777344 C 19.339844 5.402344 19.195312 5.050781 18.929688 4.789062 C 18.667969 4.523438 18.316406 4.378906 17.941406 4.378906 C 17.566406 4.378906 17.214844 4.523438 16.960938 4.777344 L 16.570312 5.144531 C 15.566406 4.421875 14.414062 3.941406 13.199219 3.730469 L 13.199219 3.433594 C 13.199219 2.78125 12.777344 2.210938 12.175781 2.050781 C 11.746094 1.933594 11.300781 2.019531 10.949219 2.289062 C 10.601562 2.558594 10.398438 2.960938 10.398438 3.398438 L 10.398438 3.730469 C 9.277344 3.925781 8.199219 4.355469 7.25 4.992188 L 7.050781 4.789062 C 6.523438 4.261719 5.597656 4.257812 5.070312 4.789062 C 4.804688 5.050781 4.660156 5.402344 4.660156 5.777344 C 4.660156 6.152344 4.804688 6.503906 5.066406 6.765625 L 5.21875 6.917969 C 4.457031 7.945312 3.949219 9.136719 3.730469 10.398438 L 3.4375 10.398438 C 2.78125 10.398438 2.210938 10.820312 2.050781 11.425781 C 1.933594 11.855469 2.023438 12.300781 2.289062 12.652344 C 2.558594 13 2.960938 13.199219 3.398438 13.199219 L 3.730469 13.199219 C 3.941406 14.425781 4.429688 15.582031 5.15625 16.589844 L 4.789062 16.949219 C 4.523438 17.214844 4.378906 17.566406 4.378906 17.941406 C 4.378906 18.316406 4.523438 18.667969 4.789062 18.929688 C 5.050781 19.195312 5.402344 19.339844 5.777344 19.339844 C 6.152344 19.339844 6.503906 19.195312 6.777344 18.917969 L 7.136719 18.53125 C 8.117188 19.210938 9.230469 19.667969 10.398438 19.871094 L 10.398438 20.566406 C 10.398438 21.21875 10.820312 21.789062 11.425781 21.949219 C 11.550781 21.984375 11.675781 22 11.800781 22 C 12.105469 22 12.402344 21.902344 12.652344 21.710938 C 13 21.445312 13.199219 21.039062 13.199219 20.601562 L 13.199219 19.871094 C 14.464844 19.652344 15.652344 19.144531 16.679688 18.382812 L 17.234375 18.929688 C 17.496094 19.195312 17.847656 19.339844 18.222656 19.339844 C 18.597656 19.339844 18.949219 19.195312 19.214844 18.929688 C 19.476562 18.667969 19.621094 18.316406 19.621094 17.941406 C 19.621094 17.566406 19.476562 17.214844 19.210938 16.949219 L 18.605469 16.355469 C 19.242188 15.40625 19.675781 14.328125 19.871094 13.199219 L 20.601562 13.199219 C 21.039062 13.199219 21.445312 13 21.710938 12.652344 C 21.980469 12.300781 22.066406 11.855469 21.949219 11.425781 C 21.789062 10.820312 21.21875 10.398438 20.566406 10.398438 Z M 19.058594 10.398438 L 15.355469 10.398438 L 17.976562 7.738281 C 18.507812 8.546875 18.878906 9.453125 19.058594 10.398438 Z M 17.515625 5.351562 C 17.742188 5.128906 18.140625 5.128906 18.363281 5.351562 C 18.476562 5.464844 18.539062 5.617188 18.539062 5.777344 C 18.539062 5.9375 18.476562 6.089844 18.363281 6.203125 L 14.660156 9.964844 C 14.402344 9.5625 14.054688 9.214844 13.65625 8.949219 Z M 13.199219 4.542969 C 14.191406 4.730469 15.136719 5.125 15.972656 5.699219 L 13.199219 8.28125 Z M 11.199219 3.398438 C 11.199219 3.214844 11.285156 3.039062 11.4375 2.921875 C 11.523438 2.855469 11.710938 2.753906 11.96875 2.824219 C 12.21875 2.890625 12.398438 3.148438 12.398438 3.433594 L 12.398438 8.457031 C 12.203125 8.417969 12 8.398438 11.800781 8.398438 C 11.597656 8.398438 11.398438 8.417969 11.199219 8.457031 Z M 10.398438 4.539062 L 10.398438 8.21875 L 7.816406 5.574219 C 8.605469 5.066406 9.484375 4.71875 10.398438 4.539062 Z M 5.636719 5.351562 C 5.75 5.242188 5.898438 5.179688 6.058594 5.179688 C 6.222656 5.179688 6.371094 5.242188 6.480469 5.351562 L 9.976562 8.929688 C 9.644531 9.144531 9.347656 9.414062 9.105469 9.726562 L 5.636719 6.203125 C 5.523438 6.089844 5.460938 5.9375 5.460938 5.777344 C 5.460938 5.617188 5.523438 5.464844 5.636719 5.351562 Z M 5.785156 7.496094 L 8.644531 10.398438 L 4.542969 10.398438 C 4.742188 9.351562 5.167969 8.359375 5.785156 7.496094 Z M 3.398438 12.402344 C 3.210938 12.402344 3.039062 12.3125 2.921875 12.164062 C 2.855469 12.074219 2.753906 11.890625 2.824219 11.632812 C 2.890625 11.382812 3.148438 11.199219 3.433594 11.199219 L 8.453125 11.199219 C 8.417969 11.398438 8.398438 11.597656 8.398438 11.800781 C 8.398438 12 8.417969 12.203125 8.453125 12.402344 Z M 4.542969 13.199219 L 8.621094 13.199219 L 5.734375 16.023438 C 5.140625 15.175781 4.734375 14.214844 4.542969 13.199219 Z M 6.203125 18.363281 C 5.976562 18.589844 5.578125 18.589844 5.351562 18.363281 C 5.242188 18.253906 5.179688 18.101562 5.179688 17.941406 C 5.179688 17.78125 5.238281 17.628906 5.351562 17.519531 L 9.09375 13.855469 C 9.285156 14.109375 9.511719 14.335938 9.765625 14.523438 Z M 10.398438 19.058594 C 9.433594 18.871094 8.507812 18.492188 7.6875 17.941406 L 10.398438 15.019531 Z M 12.398438 20.601562 C 12.398438 20.789062 12.3125 20.960938 12.164062 21.078125 C 12.074219 21.144531 11.890625 21.246094 11.632812 21.179688 C 11.382812 21.109375 11.199219 20.851562 11.199219 20.566406 L 11.199219 15.144531 C 11.597656 15.21875 12.003906 15.21875 12.398438 15.144531 Z M 13.046875 14.082031 C 12.980469 14.117188 12.933594 14.175781 12.894531 14.242188 C 12.820312 14.222656 12.742188 14.222656 12.667969 14.25 C 12.097656 14.449219 11.503906 14.449219 10.933594 14.25 C 10.863281 14.222656 10.789062 14.222656 10.722656 14.238281 C 10.683594 14.179688 10.636719 14.125 10.574219 14.09375 C 10.125 13.851562 9.757812 13.488281 9.511719 13.039062 C 9.476562 12.972656 9.421875 12.925781 9.363281 12.890625 C 9.378906 12.816406 9.378906 12.738281 9.351562 12.667969 C 9.25 12.382812 9.199219 12.09375 9.199219 11.800781 C 9.199219 11.507812 9.25 11.21875 9.351562 10.933594 C 9.378906 10.859375 9.378906 10.777344 9.359375 10.703125 C 9.425781 10.667969 9.480469 10.621094 9.519531 10.554688 C 9.800781 10.039062 10.253906 9.628906 10.792969 9.402344 C 10.8125 9.394531 10.832031 9.382812 10.847656 9.371094 C 10.878906 9.367188 10.90625 9.363281 10.933594 9.351562 C 11.5 9.152344 12.097656 9.152344 12.667969 9.351562 C 12.691406 9.359375 12.71875 9.363281 12.746094 9.367188 C 12.769531 9.382812 12.792969 9.394531 12.816406 9.40625 C 13.433594 9.667969 13.9375 10.171875 14.195312 10.789062 C 14.207031 10.808594 14.21875 10.828125 14.230469 10.847656 C 14.234375 10.875 14.238281 10.90625 14.25 10.933594 C 14.351562 11.21875 14.402344 11.507812 14.402344 11.800781 C 14.402344 12.09375 14.351562 12.382812 14.25 12.667969 C 14.238281 12.695312 14.234375 12.722656 14.230469 12.75 C 14.21875 12.769531 14.207031 12.789062 14.199219 12.808594 C 13.972656 13.347656 13.5625 13.800781 13.046875 14.082031 Z M 13.199219 19.058594 L 13.199219 14.957031 L 16.101562 17.816406 C 15.238281 18.433594 14.25 18.859375 13.199219 19.058594 Z M 18.648438 17.515625 C 18.757812 17.628906 18.820312 17.78125 18.820312 17.941406 C 18.820312 18.101562 18.761719 18.253906 18.648438 18.363281 C 18.421875 18.589844 18.027344 18.59375 17.796875 18.363281 L 13.871094 14.496094 C 14.1875 14.253906 14.457031 13.957031 14.667969 13.625 Z M 18.023438 15.789062 L 15.378906 13.199219 L 19.058594 13.199219 C 18.882812 14.117188 18.53125 15 18.023438 15.789062 Z M 21.078125 12.164062 C 20.960938 12.3125 20.789062 12.402344 20.601562 12.402344 L 15.144531 12.402344 C 15.183594 12.203125 15.199219 12 15.199219 11.800781 C 15.199219 11.597656 15.183594 11.398438 15.144531 11.199219 L 20.566406 11.199219 C 20.851562 11.199219 21.109375 11.382812 21.175781 11.632812 C 21.246094 11.890625 21.144531 12.074219 21.078125 12.164062 Z M 21.078125 12.164062"/>
</svg>

<svg xmlns="http://www.w3.org/2000/svg" width="32" height="32" viewBox="0 0 24 24">
    <path d="M23.96 11.027C23.505 5.22 18.782.497 12.974.04a11.99 11.99 0 0 0-9.457 3.477 12.009 12.009 0 0 0-3.477 9.457c.457 5.808 5.18 10.53 10.988 10.988a12.006 12.006 0 0 0 9.457-3.477 12.009 12.009 0 0 0 3.477-9.457zm-4.038 8.891a11.206 11.206 0 0 1-8.832 3.246C5.672 22.738 1.262 18.328.836 12.91a11.222 11.222 0 0 1 3.242-8.828A11.207 11.207 0 0 1 12.91.836c5.418.426 9.828 4.836 10.254 10.254a11.208 11.208 0 0 1-3.242 8.828zm0 0"/>
    <path d="M20.566 10.398h-.695a8.234 8.234 0 0 0-1.324-3.238l.383-.39c.265-.266.41-.618.41-.993s-.145-.726-.41-.988a1.376 1.376 0 0 0-.989-.41c-.375 0-.726.144-.98.398l-.39.368a8.152 8.152 0 0 0-3.372-1.415v-.296c0-.653-.422-1.223-1.023-1.383a1.393 1.393 0 0 0-1.227.238c-.347.27-.55.672-.55 1.11v.331A8.185 8.185 0 0 0 7.25 4.992l-.2-.203c-.527-.527-1.452-.531-1.98 0-.265.262-.41.613-.41.988s.145.727.406.989l.153.152a8.187 8.187 0 0 0-1.489 3.48h-.292c-.657 0-1.227.422-1.387 1.028-.117.43-.028.875.238 1.226.27.348.672.547 1.11.547h.331c.211 1.227.7 2.383 1.426 3.39l-.367.36c-.266.266-.41.617-.41.992s.144.727.41.989c.262.265.613.41.988.41s.727-.145 1-.422l.36-.387a8.19 8.19 0 0 0 3.261 1.34v.695c0 .653.422 1.223 1.028 1.383a1.393 1.393 0 0 0 1.227-.238c.347-.266.546-.672.546-1.11v-.73a8.166 8.166 0 0 0 3.48-1.488l.555.547c.262.265.614.41.989.41a1.391 1.391 0 0 0 1.398-1.399c0-.375-.144-.726-.41-.992l-.606-.594a8.177 8.177 0 0 0 1.266-3.156h.73c.438 0 .844-.199 1.11-.547.27-.351.355-.797.238-1.226-.16-.606-.73-1.028-1.383-1.028zm-1.507 0h-3.704l2.622-2.66a7.36 7.36 0 0 1 1.082 2.66zm-1.543-5.046a.621.621 0 0 1 .847 0 .6.6 0 0 1 0 .851L14.66 9.965a3.503 3.503 0 0 0-1.004-1.016zm-4.317-.809a7.294 7.294 0 0 1 2.774 1.156l-2.774 2.582zm-2-1.145a.601.601 0 0 1 .77-.574c.25.067.43.324.43.61v5.023a3.07 3.07 0 0 0-1.2 0zm-.8 1.141v3.68L7.815 5.574a7.413 7.413 0 0 1 2.582-1.035zm-4.762.813a.604.604 0 0 1 .843 0L9.977 8.93a3.526 3.526 0 0 0-.872.797L5.637 6.203a.6.6 0 0 1 0-.851zm.148 2.144l2.86 2.902H4.543c.2-1.046.625-2.039 1.242-2.902zm-2.387 4.906a.6.6 0 0 1-.574-.77c.067-.25.324-.433.61-.433h5.02c-.036.2-.056.399-.056.602 0 .199.02.402.055.601zm1.145.797h4.078l-2.887 2.824A7.265 7.265 0 0 1 4.543 13.2zm1.66 5.164a.618.618 0 0 1-.851 0 .597.597 0 0 1-.172-.422.58.58 0 0 1 .172-.421l3.742-3.665a3.3 3.3 0 0 0 .672.668zm4.195.696a7.404 7.404 0 0 1-2.71-1.118l2.71-2.921zm2 1.543c0 .187-.085.359-.234.476a.612.612 0 0 1-.531.102c-.25-.07-.434-.328-.434-.614v-5.421c.399.074.805.074 1.2 0zm.649-6.52a.402.402 0 0 0-.152.16.374.374 0 0 0-.227.008c-.57.2-1.164.2-1.734 0a.356.356 0 0 0-.211-.012.405.405 0 0 0-.149-.144 2.63 2.63 0 0 1-1.062-1.055.387.387 0 0 0-.149-.148.392.392 0 0 0-.011-.223 2.568 2.568 0 0 1-.153-.867c0-.293.051-.582.153-.867a.387.387 0 0 0 .007-.23.39.39 0 0 0 .16-.15 2.611 2.611 0 0 1 1.274-1.152.25.25 0 0 0 .055-.03.307.307 0 0 0 .086-.02c.566-.2 1.164-.2 1.734 0 .023.007.05.011.078.015.024.016.047.028.07.04a2.61 2.61 0 0 1 1.38 1.382l.034.059c.004.027.008.058.02.086.102.285.152.574.152.867 0 .293-.05.582-.152.867-.012.027-.016.055-.02.082-.011.02-.023.04-.03.059-.227.539-.637.992-1.153 1.273zm.152 4.977v-4.102l2.903 2.86a7.34 7.34 0 0 1-2.903 1.242zm5.45-1.543c.109.113.171.265.171.425a.58.58 0 0 1-.172.422.615.615 0 0 1-.851 0l-3.926-3.867c.316-.242.586-.539.797-.871zm-.626-1.727L15.38 13.2h3.68a7.347 7.347 0 0 1-1.036 2.59zm3.055-3.625a.607.607 0 0 1-.476.238h-5.457c.039-.199.054-.402.054-.601 0-.203-.015-.403-.054-.602h5.421c.286 0 .543.184.61.434a.6.6 0 0 1-.098.531zm0 0"/>
</svg>
